X: 42488
T: Wha' Saw The 42nd
R: polka
M: 2/4
K: Amajor
A>A AB|cB ce|A>A Af|ec B2|
A>A AB|cB ce|fa ea|cB B2:|
|:ce ef/g/|ae fe|ce ef/g/|ac B2|
ce ef/g/|ae fe|fa ea|cB B2:|

